X:195
T:Coolea Jig, The
M:6/8
L:1/8
Q:120
R:Jig (Key of A)
K:Amaj
"A"age dBe | ABA c2d | edc dBA | "E"GFE dcB |
"A"~A3 AGA | "E"~B3 gab | "D"age dBe |1 "A"ABA A2a :|2 "A"ABA Ace |:
"A"~a3 aga | "E"bef gab | "D"age dBe | "E"dBA GAB |
"A"A2a aga | "E"bef gab | "D"age dBe |1 "A"ABA A2e :|2 "A"ABA A2a|]
